svg/cookie_check_outline.svg

<svg xmlns="http://www.w3.org/2000/svg" viewBox="0 0 24 24"><path d="M15 10h-.5c-.83 0-1.5-.67-1.5-1.5V8h-.5c-.83 0-1.5-.67-1.5-1.5V5.07C7.91 5.5 5.47 8 5.07 11.08A1.494 1.494 0 0 1 8 11.5c0 .83-.67 1.5-1.5 1.5-.79 0-1.43-.61-1.5-1.38 0 .49 0 .99.09 1.5.41 2.69 2.45 4.92 5.07 5.62A1.498 1.498 0 0 1 11 16c.83 0 1.5.67 1.5 1.5 0 .72-.5 1.32-1.18 1.46.58.04 1.14.04 1.68-.04V19c0 .66.12 1.3.32 1.89-.43.07-.87.11-1.32.11a9 9 0 0 1 0-18s1 0 1 1v2h1s1 0 1 1v1h2s1 0 1 1v1h2s.6 0 .87.5a8.4 8.4 0 0 1 .02 2.82c-.59-.2-1.23-.32-1.89-.32h-.08c.05-.32.08-.66.08-1h-1.5c-.83 0-1.5-.67-1.5-1.5V10zm0 4.5v.03c.66-.58 1.45-1.03 2.32-1.29-.24-.15-.52-.24-.82-.24-.83 0-1.5.67-1.5 1.5m-3.5-.5c.83 0 1.5-.67 1.5-1.5s-.67-1.5-1.5-1.5-1.5.67-1.5 1.5.67 1.5 1.5 1.5M11 7.5c0-.83-.67-1.5-1.5-1.5S8 6.67 8 7.5 8.67 9 9.5 9 11 8.33 11 7.5m10.34 8.34-3.59 3.59-1.59-1.59L15 19l2.75 3 4.75-4.75z"/></svg>

<?xml version="1.0" encoding="UTF-8"?><!DOCTYPE svg PUBLIC "-//W3C//DTD SVG 1.1//EN" "http://www.w3.org/Graphics/SVG/1.1/DTD/svg11.dtd"><svg xmlns="http://www.w3.org/2000/svg" xmlns:xlink="http://www.w3.org/1999/xlink" version="1.1" id="mdi-cookie-check-outline" width="24" height="24" viewBox="0 0 24 24"><path d="M15 10H14.5C13.67 10 13 9.33 13 8.5V8H12.5C11.67 8 11 7.33 11 6.5V5.07C7.91 5.5 5.47 8 5.07 11.08C5.25 10.46 5.82 10 6.5 10C7.33 10 8 10.67 8 11.5S7.33 13 6.5 13C5.71 13 5.07 12.39 5 11.62C5 12.11 5 12.61 5.09 13.12C5.5 15.81 7.54 18.04 10.16 18.74C9.76 18.47 9.5 18 9.5 17.5C9.5 16.67 10.17 16 11 16S12.5 16.67 12.5 17.5C12.5 18.22 12 18.82 11.32 18.96C11.9 19 12.46 19 13 18.92C13 18.95 13 18.97 13 19C13 19.66 13.12 20.3 13.32 20.89C12.89 20.96 12.45 21 12 21C7.03 21 3 16.97 3 12S7.03 3 12 3C12 3 13 3 13 4V6H14C14 6 15 6 15 7V8H17C17 8 18 8 18 9V10H20C20 10 20.6 10 20.87 10.5C20.96 11 21 11.5 21 12C21 12.45 20.96 12.89 20.89 13.32C20.3 13.12 19.66 13 19 13C18.97 13 18.95 13 18.92 13C18.97 12.68 19 12.34 19 12H17.5C16.67 12 16 11.33 16 10.5V10H15M15 14.5C15 14.5 15 14.5 15 14.53C15.66 13.95 16.45 13.5 17.32 13.24C17.08 13.09 16.8 13 16.5 13C15.67 13 15 13.67 15 14.5M11.5 14C12.33 14 13 13.33 13 12.5S12.33 11 11.5 11 10 11.67 10 12.5 10.67 14 11.5 14M11 7.5C11 6.67 10.33 6 9.5 6S8 6.67 8 7.5 8.67 9 9.5 9 11 8.33 11 7.5M21.34 15.84L17.75 19.43L16.16 17.84L15 19L17.75 22L22.5 17.25L21.34 15.84Z" /></svg>
